src/Assets/image/loading_fish_up.svg

<svg fill="none" height="73" viewBox="0 0 28 73" width="28" xmlns="http://www.w3.org/2000/svg"><path clip-rule="evenodd" d="m5.54746 1.28896c2.58053.91329 5.07104 2.10189 7.32884 3.63454 1.6979-1.19991 3.7506-2.03392 5.8066-1.76883.686.08896 1.3472.29595 2.0092.50318.4701.14715.9406.29442 1.4206.39964 1.1566.25265 2.4834.21512 3.3701-.56554-.0497.38057-.2089.72377-.4368 1.02663.0226-.00613.0453-.01236.068-.01872l.0203.04384c-.0557.02637-.1118.05177-.1683.0762-.3455.41756-.8208.7529-1.3089.99755-.3499.17517-.7152.31984-1.0802.46438-.5422.21476-1.0838.42926-1.5733.74316-.1463.09393-.2893.19726-.4326.30069-.4183.3021-.8378.60504-1.3406.67698-.5373.07791-1.0475-.12294-1.5628-.32586-.3309-.13028-.664-.26141-1.0079-.32017-.3052-.0521-.6186-.04143-.9206.02431 2.5858 2.37443 4.6494 5.34156 5.7144 8.67826l.0007.0006c1.3051 4.0885 1.0043 8.5087-.2908 12.5547-.1047.3279-.2154.6559-.3323.983.0346.0854.07.1703.1061.2547.3869.9043.8553 1.7694 1.3236 2.6346.4083.7541.8165 1.5082 1.1709 2.2884 1.4369 3.1615 1.9552 6.7324 1.4777 10.169-.822.1389-1.7035-.1424-2.2943-.7316-.6771 1.0952-1.0987 2.3519-1.1885 3.6366-.1131 1.6126.4118 3.4095 1.7972 4.2475 1.125.6806 2.8094.3152 3.4833-.7082-.0401-.1-.0925-.1965-.1584-.2877l.0359-.0311c.065.0762.1208.1594.1672.2475.1307-.2197.216-.4676.2414-.7403.9669 1.6215-.1927 3.9567-2.0106 4.457-1.8178.5003-3.8355-.6146-4.7078-2.288.0427 3.012-1.3281 6.0121-3.6327 7.9492-.7494.6295-1.5881 1.1508-2.4248 1.6709-1.2093.7517-2.4144 1.5007-3.3393 2.5701-1.85744 2.1471-2.20402 5.3468-2.17211 8.1887-2.59799-2.9317-3.18126-7.4798-1.40611-10.9644.53392-1.048 1.24923-1.9867 1.96377-2.9244.19328-.2537.3865-.5073.57606-.7629.97409-1.3135 1.85799-2.6935 2.64549-4.1267-.8965 1.0672-1.9355 2.0234-2.97581 2.9809-.74333.6841-1.4873 1.3688-2.18035 2.095-2.16119 2.2658-3.92397 5.4276-3.03145 8.434-1.75377-3.1794-1.29615-7.0654-.78862-10.6581.3954-2.7992.80788-5.6535 2.06465-8.1848.16222-.3271.33831-.648.51433-.9687l.00006-.0001c.36117-.6581.72199-1.3156.96185-2.0251.22785-.6733.34151-1.3772.45516-2.0811.11202-.6938.22403-1.3875.44537-2.052.15482-.4648.35679-.9015.59648-1.3152-.04765.0756-.09456.1516-.14076.2278-.1667.2984-.32788.6042-.41674.9378l-.04739-.0077c.05656-.3482.18695-.6765.33393-.9919.2996-.6312.67975-1.2195 1.10064-1.7755.68735-.9187 1.59395-1.6203 2.49725-2.3195h.0001v-.0001h.0001v-.0001h.0001l.0001-.0001.0001-.0001h.0001v-.0001h.0001v-.0001h.0001v-.0001h.0001l.0001-.0001.0001-.0001h.0001v-.0001h.0001v-.0001h.0001c.4771-.3693.9534-.7379 1.396-1.1376 2.0679-1.8503 3.5544-4.345 4.1636-7.0554l.0295.0062c.0069-.0441.0135-.0882.0199-.1322-.1325-1.7502-.5205-3.482-1.1414-5.1258-.0561-.0165-.1126-.0325-.1694-.048l.0011-.0135c.0499.0035.1.0081.1502.0138-.4051-1.0638-.9077-2.0904-1.5018-3.0608l-.0523-.0015c.2801.5855.4796 1.1167.4994 1.6968.0394 1.1834-.6574 2.2893-1.4702 3.148-.4252.4496-.873.8074-1.3372 1.1784-.1779.1422-.3582.2864-.5407.4384-.6583.5484-1.0282 1.4395-1.1125 2.1607-.0445-1.4567-.0733-2.9856.5899-4.2826.3512-.6853.8716-1.2563 1.3931-1.8286.2774-.3044.5551-.6091.8079-.9316.4243-.5418.9642-1.487.8016-2.2335-.2693-.4-.5548-.7892-.856-1.1661l-.0777.0034.0225-.0055.0451-.0105c-.1974-.2466-.4015-.4878-.6122-.7234-.2171-.2427-.4404-.4793-.6686-.7109l-.1409.0196c-.0607.0084-.1185.0165-.1695.0233.0912-.0277.1836-.0532.2771-.0766-.1109-.1121-.223-.2231-.3361-.333l-.0142.0054-.0066-.0123.0089-.0047c-.7859-.7632-1.6199-1.478-2.45359-2.1925l-.28875-.2476c.37275 1.4433.30163 3.0418-.50851 4.2805-.18037.2755-.45902.4534-.73843.6318-.074.0473-.14806.0946-.22036.1437-.37491.2554-.75448.5146-1.04955.8597-.63501.7452-.78674 1.7707-.93048 2.742l-.00964.0651c-.14607.9911-.35859 2.0504-1.08961 2.7342l-.00142.0001c.45708-.7148.24048-1.4387-.01388-2.2491-.08197-.2613-.16914-.5238-.25664-.7872-.4706-1.4169-.95025-2.861-.67726-4.3073.16242-.8627.58363-1.652 1.003-2.4379.50075-.9384.99886-1.8719 1.05062-2.9194.03962-.7887-.09047-1.6078-.41617-2.33-1.00617-1.01303-1.98047-2.05808-2.92797-3.12648.00139.02348-.00075.04329-.00684.05877-.00323.00756-.00373.01611-.00422.02452-.0007.012-.00139.02372-.00994.03187-.0178.01766-.04644.01416-.07029.00817-.2621-.06167-.48601-.22764-.6829-.41127l.00066-.00076c-.21685-.20203-.855318-1.01788-.35178-1.09133-.397971-.56719-.721136-1.17487-.875885-1.84723-.2813629-1.22249.185964-2.70883 1.348015-3.179204.70467-.285835 1.49086-.150458 2.23404.062816.0016-.008374.0043-.016945.0082-.025717.05686-.129121.5117-.069308.60984-.046968l-.00152-.001304c.37293.083047.53059.123563.87751.28446.20804.096967.29591.189587.27481.247917-.01121.02993-.04322.04725-.07436.05741-.02397.00765-.04828.01291-.07284.01619zm9.03534 18.21744c.0743.115.1474.2307.2191.3474l-.0447.0048c-.0554-.115-.1138-.2321-.1744-.3522zm10.0366 10.3375-.0034-.004c-.0661-.0904.0194-.5505.097-.9681v-.0003c.0556-.299.1071-.5761.0959-.6801-.0601-.5592-.1558-1.1753-.34-1.7066-.2286-.6578-.8817-1.9095-1.777-1.6806.0309 2.6102.8281 3.7661 1.9241 5.0357l.0027.0033z" fill="#bde6fe" fill-rule="evenodd"/></svg>

<svg width="28" height="73" viewBox="0 0 28 73" fill="none" xmlns="http://www.w3.org/2000/svg">
<path fill-rule="evenodd" clip-rule="evenodd" d="M5.54746 1.28896C8.12799 2.20225 10.6185 3.39085 12.8763 4.9235C14.5742 3.72359 16.6269 2.88958 18.6829 3.15467C19.3689 3.24363 20.0301 3.45062 20.6921 3.65785C21.1622 3.805 21.6327 3.95227 22.1127 4.05749C23.2693 4.31014 24.5961 4.27261 25.4828 3.49195C25.4331 3.87252 25.2739 4.21572 25.046 4.51858C25.0686 4.51245 25.0913 4.50622 25.114 4.49986L25.1343 4.5437C25.0786 4.57007 25.0225 4.59547 24.966 4.6199C24.6205 5.03746 24.1452 5.3728 23.6571 5.61745C23.3072 5.79262 22.9419 5.93729 22.5769 6.08183C22.0347 6.29659 21.4931 6.51109 21.0036 6.82499C20.8573 6.91892 20.7143 7.02225 20.571 7.12568C20.1527 7.42778 19.7332 7.73072 19.2304 7.80266C18.6931 7.88057 18.1829 7.67972 17.6676 7.4768C17.3367 7.34652 17.0036 7.21539 16.6597 7.15663C16.3545 7.10453 16.0411 7.1152 15.7391 7.18094C18.3249 9.55537 20.3885 12.5225 21.4535 15.8592L21.4542 15.8598C22.7593 19.9483 22.4585 24.3685 21.1634 28.4145C21.0587 28.7424 20.948 29.0704 20.8311 29.3975C20.8657 29.4829 20.9011 29.5678 20.9372 29.6522C21.3241 30.5565 21.7925 31.4216 22.2608 32.2868C22.6691 33.0409 23.0773 33.795 23.4317 34.5752C24.8686 37.7367 25.3869 41.3076 24.9094 44.7442C24.0874 44.8831 23.2059 44.6018 22.6151 44.0126C21.938 45.1078 21.5164 46.3645 21.4266 47.6492C21.3135 49.2618 21.8384 51.0587 23.2238 51.8967C24.3488 52.5773 26.0332 52.2119 26.7071 51.1885C26.667 51.0885 26.6146 50.992 26.5487 50.9008L26.5846 50.8697C26.6496 50.9459 26.7054 51.0291 26.7518 51.1172C26.8825 50.8975 26.9678 50.6496 26.9932 50.3769C27.9601 51.9984 26.8005 54.3336 24.9826 54.8339C23.1648 55.3342 21.1471 54.2193 20.2748 52.5459C20.3175 55.5579 18.9467 58.558 16.6421 60.4951C15.8927 61.1246 15.054 61.6459 14.2173 62.166C13.008 62.9177 11.8029 63.6667 10.878 64.7361C9.02056 66.8832 8.67398 70.0829 8.70589 72.9248C6.1079 69.9931 5.52463 65.445 7.29978 61.9604C7.8337 60.9124 8.54901 59.9737 9.26355 59.036C9.45683 58.7823 9.65005 58.5287 9.83961 58.2731C10.8137 56.9596 11.6976 55.5796 12.4851 54.1464C11.5886 55.2136 10.5496 56.1698 9.50929 57.1273C8.76596 57.8114 8.02199 58.4961 7.32894 59.2223C5.16775 61.4881 3.40497 64.6499 4.29749 67.6563C2.54372 64.4769 3.00134 60.5909 3.50887 56.9982C3.90427 54.199 4.31675 51.3447 5.57352 48.8134C5.73574 48.4863 5.91183 48.1654 6.08785 47.8447L6.08791 47.8446C6.44908 47.1865 6.8099 46.529 7.04976 45.8195C7.27761 45.1462 7.39127 44.4423 7.50492 43.7384C7.61694 43.0446 7.72895 42.3509 7.95029 41.6864C8.10511 41.2216 8.30708 40.7849 8.54677 40.3712C8.49912 40.4468 8.45221 40.5228 8.40601 40.599C8.23931 40.8974 8.07813 41.2032 7.98927 41.5368L7.94188 41.5291C7.99844 41.1809 8.12883 40.8526 8.27581 40.5372C8.57541 39.906 8.95556 39.3177 9.37645 38.7617C10.0638 37.843 10.9704 37.1414 11.8737 36.4422L11.8738 36.4422L11.8738 36.4422L11.8738 36.4421L11.8739 36.4421L11.8739 36.4421L11.8739 36.4421L11.8739 36.442L11.874 36.442L11.874 36.442L11.874 36.442L11.874 36.442L11.8741 36.4419L11.8741 36.4419L11.8741 36.4419L11.8741 36.4419L11.8742 36.4418L11.8742 36.4418L11.8742 36.4418L11.8743 36.4418L11.8743 36.4417L11.8743 36.4417L11.8743 36.4417L11.8744 36.4417L11.8744 36.4417L11.8744 36.4416L11.8744 36.4416L11.8745 36.4416L11.8745 36.4416L11.8745 36.4415L11.8745 36.4415L11.8746 36.4415L11.8746 36.4415L11.8746 36.4415L11.8747 36.4414L11.8747 36.4414L11.8747 36.4414L11.8747 36.4414L11.8748 36.4413L11.8748 36.4413L11.8748 36.4413L11.8748 36.4413L11.8749 36.4413L11.8749 36.4412L11.8749 36.4412L11.8749 36.4412L11.875 36.4412L11.875 36.4411L11.875 36.4411L11.8751 36.4411C12.3522 36.0718 12.8285 35.7032 13.2711 35.3035C15.339 33.4532 16.8255 30.9585 17.4347 28.2481L17.4642 28.2543C17.4711 28.2102 17.4777 28.1661 17.4841 28.1221C17.3516 26.3719 16.9636 24.6401 16.3427 22.9963C16.2866 22.9798 16.2301 22.9638 16.1733 22.9483L16.1744 22.9348C16.2243 22.9383 16.2744 22.9429 16.3246 22.9486C15.9195 21.8848 15.4169 20.8582 14.8228 19.8878L14.7705 19.8863C15.0506 20.4718 15.2501 21.003 15.2699 21.5831C15.3093 22.7665 14.6125 23.8724 13.7997 24.7311C13.3745 25.1807 12.9267 25.5385 12.4625 25.9095C12.2846 26.0517 12.1043 26.1959 11.9218 26.3479C11.2635 26.8963 10.8936 27.7874 10.8093 28.5086C10.7648 27.0519 10.736 25.523 11.3992 24.226C11.7504 23.5407 12.2708 22.9697 12.7923 22.3974L12.7923 22.3974C13.0697 22.093 13.3474 21.7883 13.6002 21.4658C14.0245 20.924 14.5644 19.9788 14.4018 19.2323C14.1325 18.8323 13.847 18.4431 13.5458 18.0662L13.4681 18.0696L13.4906 18.0641L13.5357 18.0536C13.3383 17.807 13.1342 17.5658 12.9235 17.3302C12.7064 17.0875 12.4831 16.8509 12.2549 16.6193L12.114 16.6389C12.0533 16.6473 11.9955 16.6554 11.9445 16.6622C12.0357 16.6345 12.1281 16.609 12.2216 16.5856C12.1107 16.4735 11.9986 16.3625 11.8855 16.2526L11.8713 16.258L11.8647 16.2457L11.8736 16.241C11.0877 15.4778 10.2537 14.763 9.42001 14.0485L9.13126 13.8009C9.50401 15.2442 9.43289 16.8427 8.62275 18.0814C8.44238 18.3569 8.16373 18.5348 7.88432 18.7132C7.81032 18.7605 7.73626 18.8078 7.66396 18.8569C7.28905 19.1123 6.90948 19.3715 6.61441 19.7166C5.9794 20.4618 5.82767 21.4873 5.68393 22.4586L5.67429 22.5237C5.52822 23.5148 5.3157 24.5741 4.58468 25.2579L4.58326 25.258C5.04034 24.5432 4.82374 23.8193 4.56938 23.0089C4.48741 22.7476 4.40024 22.4851 4.31274 22.2217C3.84214 20.8048 3.36249 19.3607 3.63548 17.9144C3.7979 17.0517 4.21911 16.2624 4.63848 15.4765C5.13923 14.5381 5.63734 13.6046 5.6891 12.5571C5.72872 11.7684 5.59863 10.9493 5.27293 10.2271C4.26676 9.21407 3.29246 8.16902 2.34496 7.10062C2.34635 7.1241 2.34421 7.14391 2.33812 7.15939C2.33489 7.16695 2.33439 7.1755 2.3339 7.18391C2.3332 7.19591 2.33251 7.20763 2.32396 7.21578C2.30616 7.23344 2.27752 7.22994 2.25367 7.22395C1.99157 7.16228 1.76766 6.99631 1.57077 6.81268L1.57143 6.81192C1.35458 6.60989 0.716112 5.79404 1.21965 5.72059C0.821679 5.1534 0.498514 4.54572 0.343765 3.87336C0.0624021 2.65087 0.529729 1.16453 1.69178 0.694156C2.39645 0.408321 3.18264 0.543698 3.92582 0.756972C3.92742 0.748598 3.93012 0.740027 3.93402 0.731255C3.99088 0.602134 4.44572 0.661947 4.54386 0.684287L4.54234 0.682983C4.91527 0.76603 5.07293 0.806546 5.41985 0.967443C5.62789 1.06441 5.71576 1.15703 5.69466 1.21536C5.68345 1.24529 5.65144 1.26261 5.6203 1.27277C5.59633 1.28042 5.57202 1.28568 5.54746 1.28896ZM14.5828 19.5064C14.6571 19.6214 14.7302 19.7371 14.8019 19.8538L14.7572 19.8586C14.7018 19.7436 14.6434 19.6265 14.5828 19.5064ZM24.6194 29.8439L24.616 29.8399C24.5499 29.7495 24.6354 29.2894 24.713 28.8718L24.713 28.8715C24.7686 28.5725 24.8201 28.2954 24.8089 28.1914C24.7488 27.6322 24.6531 27.0161 24.4689 26.4848C24.2403 25.827 23.5872 24.5753 22.6919 24.8042C22.7228 27.4144 23.52 28.5703 24.616 29.8399L24.6187 29.8432L24.6194 29.8439Z" fill="#BDE6FE"/>
</svg>
